docs/img/Instagram.svg

<svg width="22" height="22" viewBox="0 0 22 22" fill="none" xmlns="http://www.w3.org/2000/svg">
<rect width="22" height="22" fill="#764F96"/>
<path d="M10.9972 5.00343C8.53963 5.00343 6.2059 4.78498 5.31451 7.07088C4.94631 8.01499 4.99978 9.24112 4.99978 10.9968C4.99978 12.5374 4.95037 13.9854 5.31451 14.922C6.20387 17.2093 8.55655 16.9902 10.9959 16.9902C13.3492 16.9902 15.7757 17.235 16.6779 14.922C17.0468 13.9685 16.9926 12.7606 16.9926 10.9968C16.9926 8.65545 17.1219 7.14392 15.9855 6.00908C14.8349 4.85937 13.2788 5.00343 10.9945 5.00343H10.9972ZM10.4598 6.08348C15.5862 6.07536 16.2386 5.50592 15.8786 13.4166C15.7506 16.2145 13.6186 15.9074 10.9979 15.9074C6.21944 15.9074 6.08204 15.7708 6.08204 10.9941C6.08204 6.16193 6.46107 6.08618 10.4598 6.08213V6.08348ZM14.1987 7.07832C13.8013 7.07832 13.4792 7.40023 13.4792 7.79722C13.4792 8.19421 13.8013 8.51613 14.1987 8.51613C14.596 8.51613 14.9181 8.19421 14.9181 7.79722C14.9181 7.40023 14.596 7.07832 14.1987 7.07832ZM10.9972 7.91896C9.29633 7.91896 7.91762 9.29726 7.91762 10.9968C7.91762 12.6963 9.29633 14.074 10.9972 14.074C12.6981 14.074 14.0761 12.6963 14.0761 10.9968C14.0761 9.29726 12.6981 7.91896 10.9972 7.91896ZM10.9972 8.99901C13.6403 8.99901 13.6436 12.9946 10.9972 12.9946C8.35485 12.9946 8.35079 8.99901 10.9972 8.99901Z" fill="white"/>
</svg>

<svg width="22" height="22" fill="none" xmlns="http://www.w3.org/2000/svg"><path fill="#764F96" d="M0 0h22v22H0z"/><path d="M10.997 5.003c-2.457 0-4.791-.218-5.682 2.068C4.946 8.015 5 9.24 5 10.997c0 1.54-.05 2.988.315 3.925.889 2.287 3.242 2.068 5.68 2.068 2.354 0 4.78.245 5.683-2.068.369-.954.315-2.161.315-3.925 0-2.342.129-3.853-1.007-4.988-1.151-1.15-2.707-1.006-4.992-1.006h.003zm-.537 1.08c5.126-.008 5.779-.577 5.419 7.334-.128 2.798-2.26 2.49-4.881 2.49-4.779 0-4.916-.136-4.916-4.913 0-4.832.38-4.908 4.378-4.912v.001zm3.739.995a.72.72 0 100 1.439.72.72 0 000-1.439zm-3.202.841a3.078 3.078 0 100 6.155 3.078 3.078 0 100-6.155zm0 1.08c2.643 0 2.647 3.996 0 3.996-2.642 0-2.646-3.996 0-3.996z" fill="#fff"/></svg>
